!!!COM: Palestrina, Giovanni Perluigi da
!!!OPR: Missa De Beata Marie Virginis (I)
!!!OMD: Gloria
!!!OTL: Quoniam
**kern	**kern	**kern	**kern	**kern
*Ibass	*Itenor	*Itenor	*Icalto	*Icant
!Bassus	!Tenor 2	!Tenor 1	!Altus	!Cantus
*clefF4	*clefGv2	*clefGv2	*clefG2	*clefG2
*k[]	*k[]	*k[]	*k[]	*k[]
*G:mix	*G:mix	*G:mix	*G:mix	*G:mix
*M4/2	*M4/2	*M4/2	*M4/2	*M4/2
=107	=107	=107	=107	=107
0r	0r	1r	1g	0r
.	.	1d	1f	.
=108	=108	=108	=108	=108
0r	0r	1c	2e	1r
.	.	.	2c	.
.	.	2B	2.d	1dd
.	.	2G	.	.
.	.	.	4e	.
=109	=109	=109	=109	=109
0r	0r	4A	4f	1cc
.	.	4B	4g	.
.	.	4c	2a	.
.	.	4d	.	.
.	.	4e	2g	1b
.	.	4f	.	.
.	.	2g	4e	.
.	.	.	8f	.
.	.	.	8g	.
=110	=110	=110	=110	=110
0r	0r	2f	2a	1cc
.	.	2c	1g	.
.	.	2.d	.	1a
.	.	.	2f#	.
.	.	4c	.	.
=111	=111	=111	=111	=111
1G	0r	4B	2g	1g
.	.	4A	.	.
.	.	2B	4d	.
.	.	.	4e	.
1F	.	1A	4f	2cc
.	.	.	4g	.
.	.	.	[2a	2dd
=112	=112	=112	=112	=112
1E	0r	2c	2a]	1ee
.	.	2B	2g#	.
1F	.	2A	1a	2.cc
.	.	[2c	.	.
.	.	.	.	8dd
.	.	.	.	8ee
=113	=113	=113	=113	=113
1D	0r	2c]	2.f	1.ff
.	.	2B	.	.
.	.	.	4g	.
1C	.	2.c	2a	.
.	.	.	2g	2ee
.	.	4B	.	.
=114	=114	=114	=114	=114
1F	1r	2A	2.f	2dd
.	.	2a	.	1cc
.	.	.	4e	.
1G	1d	2.g	2d	.
.	.	.	[2g	2b
.	.	4f	.	.
=115	=115	=115	=115	=115
1A	1c	2e	2g]	1cc
.	.	4d	2f#	.
.	.	4c	.	.
1G	1B	1d	2g	1r
.	.	.	[2g	.
=116	=116	=116	=116	=116
1C	1c	1e	2g]	2r
.	.	.	2c	1gg
2r	1A	1c	2e	.
[2c	.	.	2f	2ff
=117	=117	=117	=117	=117
2c]	1G	2r	2.g	2ee
2B	.	2d	.	2dd
.	.	.	8f#	.
.	.	.	8g	.
2A	1c	1e	2a	2cc
2c	.	.	2g	[2ee
=118	=118	=118	=118	=118
2G	1d	2g	4b	4ee]
.	.	.	4a	4dd
2D	.	2.a	4f#	1dd
.	.	.	4g	.
1A	1e	.	1a	.
.	.	4g	.	.
.	.	2e	.	2cc#
=119	=119	=119	=119	=119
[0D	[0d	[0f#	[0a	[0dd
=120	=120	=120	=120	=120
0D]	0d]	0f#]	0a]	0dd]
*-	*-	*-	*-	*-
!!!CDT: 1525/^1526/-1594/2/2
!!!OCY: Italia
!!!AGN: Mass (Paraphrase)
!!!AST: renaissance, vocal
!!!ASW: Gregorian Mass
!!!PWK: Masses, Book Mantuan I
!!!RNB: Cadence finals: D
!!!YOR: Le Opere Complete, v. 18, p. 83
!!!YOO: Rome, Italy: Fratelli Scalera
!!!END: 1992//
!!!EED: John Miller
!!!YEC: Copyright 2000, John Miller
!!!YEN: United States of America
!!!YEM: Rights to all derivative electronic formats reserved.
!!!YEM: Refer to licensing agreement for further details.
!!!YEM: This file must be accompanied by the licensing agreement.
!!!YEM: A copy of the licensing agreement may be found at http://www.music-cog.ohio-state.edu/HumdrumDatabases/Palestrina/license.txt
!!!EMD: converted to Humdrum by Bret Aarden
